X:19
T:ROND DE LOUDEAC 13
Z: Yves Belotteau
M:4/4
L:1/8
Q:1/4=120
K:G
|B3/2 z/2 GA GFE3/2 z/2 |B3/2 z/2 GA GFE3/2 z/2 |B3/2 z/2 GA GFE3/2 z/2
|B3/2 z/2 GA GFE3/2 z/2 |
B3/2 z/2 BA BcBG|A3/2 z/2 AB GFE3/2 z/2 |E3/2 z/2 EF GABG|c3/2 z/2 BA BG
E3/2|
